!!!OTL: Der Herr von Braunschweig
!!!ARE: Europa, Mitteleuropa, Deutschland
!!!SCT: L0064
!!!YEM: Copyright 1995, estate of Helmut Schaffrath.
**kern
*ICvox
*Ivox
*M3/2
*k[b-]
*d:
{2d
=1
4fn
4g
2a
2d
=2
4g
4g
2a}
{2dd
=3
4ccn
4dd
2ccn
2b
=4
2a
2fn
4r}
{4fn
=5
2fn
2a
2fn
=6
4e
4e
2d
4r}
{4d
=7
4fn
4g
2a
2fn
=8
2e
2d}
==
!!!AGN: Lied
!! 15. Jh.
!!!ONB: ESAC (Essen Associative Code) Database: ERK5
!!!AMT: simple triple
!!!AIN: vox
!!!EED: Helmut Schaffrath
!!!EEV: 1.0
*-
